; generated by Slic3r 1.2.9 on 2019-05-08 at 10:09:50

; external perimeters extrusion width = 0.40mm
; perimeters extrusion width = 0.67mm
; infill extrusion width = 0.67mm
; solid infill extrusion width = 0.67mm
; top infill extrusion width = 0.67mm

M107
M190 S60 ; set bed temperature
M104 S200 ; set temperature
G28 ; home all axes
G1 Z5 F5000 ; lift nozzle

M109 S200 ; wait for temperature to be reached
G21 ; set units to millimeters
G90 ; use absolute coordinates
M82 ; use absolute distances for extrusion
G92 E0
G1 Z0.350 F7800.000
G1 E-5.00000 F2400.00000
G92 E0
G1 X97.762 Y101.845 F7800.000
G1 E5.00000 F2400.00000
G1 X98.413 Y101.311 E5.07657 F1800.000
G1 X99.492 Y100.590 E5.19457
G1 X100.235 Y100.193 E5.27116
G1 X101.434 Y99.696 E5.38918
G1 X102.240 Y99.452 E5.46574
G1 X103.513 Y99.198 E5.58383
G1 X104.352 Y99.116 E5.66040
G1 X105.649 Y99.116 E5.77834
G1 X106.487 Y99.198 E5.85490 F1800.000
G1 X107.137 Y99.295 E5.91472
G1 X116.754 Y101.220 E6.80654
G1 X117.377 Y101.376 E6.86495
G1 X117.814 Y101.509 E6.90647
G1 X119.014 Y102.006 E7.02452
G1 X119.417 Y102.221 E7.06610
G1 X120.496 Y102.942 E7.18414
G1 X120.850 Y103.232 E7.22571
G1 X121.767 Y104.150 E7.34370
G1 X122.058 Y104.504 E7.38534
G1 X122.779 Y105.584 E7.50342
G1 X122.994 Y105.986 E7.54493
G1 X123.491 Y107.185 E7.66296
G1 X123.624 Y107.623 E7.70449
G1 X123.877 Y108.896 E7.82257
G1 X123.922 Y109.351 E7.86408
G1 X123.922 Y110.649 E7.98219
G1 X123.877 Y111.104 E8.02375
G1 X123.624 Y112.377 E8.14175
G1 X123.491 Y112.815 E8.18332
G1 X122.994 Y114.014 E8.30135
G1 X122.779 Y114.416 E8.34286
G1 X122.058 Y115.496 E8.46094
G1 X121.767 Y115.850 E8.50258
G1 X120.850 Y116.768 E8.62056
G1 X120.497 Y117.057 E8.66208
G1 X119.417 Y117.779 E8.78017
G1 X119.014 Y117.994 E8.82168
G1 X117.814 Y118.491 E8.93980
G1 X117.377 Y118.624 E8.98132
G1 X116.754 Y118.780 E9.03973
G1 X107.137 Y120.705 E9.93155
G1 X106.487 Y120.802 E9.99137
G1 X105.648 Y120.884 E10.06794
G1 X104.351 Y120.884 E10.18588
G1 X103.513 Y120.802 E10.26244
G1 X102.240 Y120.548 E10.38053
G1 X101.435 Y120.304 E10.45702
G1 X100.235 Y119.807 E10.57512
G1 X99.493 Y119.410 E10.65165
G1 X98.413 Y118.689 E10.76970
G1 X97.763 Y118.155 E10.84621
G1 X96.845 Y117.237 E10.96427
G1 X96.311 Y116.587 E11.04077
G1 X95.590 Y115.507 E11.15882
G1 X95.193 Y114.765 E11.23536
G1 X94.696 Y113.565 E11.35345
G1 X94.452 Y112.760 E11.42994
G1 X94.198 Y111.487 E11.54802
G1 X94.116 Y110.648 E11.62460
G1 X94.116 Y109.351 E11.74254
G1 X94.198 Y108.513 E11.81910
G1 X94.452 Y107.240 E11.93719
G1 X94.696 Y106.434 E12.01371
G1 X95.193 Y105.235 E12.13177
G1 X95.590 Y104.493 E12.20831
G1 X96.311 Y103.413 E12.32636
G1 X96.845 Y102.762 E12.40293
G1 X97.720 Y101.888 E12.51540
G1 E7.51540 F2400.00000
G92 E0
G1 X99.389 Y103.826 F7800.000
G1 E5.00000 F2400.00000
G1 X100.193 Y103.166 E5.09467 F1800.000
G1 X100.525 Y102.944 E5.13093
G1 X101.619 Y102.359 E5.24374
G1 X101.988 Y102.207 E5.28001
G1 X103.175 Y101.846 E5.39282
G1 X103.566 Y101.769 E5.42911
G1 X104.801 Y101.647 E5.54192
G1 X105.199 Y101.647 E5.57816
G1 X106.434 Y101.769 E5.69096 F1800.000
G1 X106.825 Y101.846 E5.72725
G1 X108.012 Y102.207 E5.84006
G1 X108.381 Y102.359 E5.87632
G1 X109.475 Y102.944 E5.98912
G1 X109.807 Y103.166 E6.02539
G1 X110.765 Y103.953 E6.13817
G1 X111.048 Y104.235 E6.17445
G1 X111.232 Y104.459 E6.20084
G1 X111.670 Y104.546 E6.24151
G1 X112.370 Y104.172 E6.31368
G1 X112.739 Y104.019 E6.34995
G1 X113.557 Y103.771 E6.42774
G1 X113.949 Y103.693 E6.46402
G1 X114.800 Y103.609 E6.54184
G1 X115.200 Y103.609 E6.57813
G1 X116.051 Y103.693 E6.65591
G1 X116.442 Y103.771 E6.69221
G1 X117.261 Y104.019 E6.77001
G1 X117.630 Y104.172 E6.80629
G1 X118.385 Y104.576 E6.88411
G1 X118.716 Y104.797 E6.92039
G1 X119.378 Y105.340 E6.99820
G1 X119.660 Y105.622 E7.03446
G1 X120.203 Y106.284 E7.11232
G1 X120.425 Y106.616 E7.14861
G1 X120.828 Y107.370 E7.22633
G1 X120.980 Y107.739 E7.26264
G1 X121.229 Y108.558 E7.34047
G1 X121.307 Y108.949 E7.37675
G1 X121.391 Y109.800 E7.45455
G1 X121.391 Y110.200 E7.49085
G1 X121.307 Y111.051 E7.56866
G1 X121.229 Y111.442 E7.60492
G1 X120.980 Y112.261 E7.68276
G1 X120.828 Y112.630 E7.71907
G1 X120.425 Y113.384 E7.79679
G1 X120.203 Y113.716 E7.83308
G1 X119.660 Y114.378 E7.91094
G1 X119.378 Y114.660 E7.94720
G1 X118.716 Y115.203 E8.02498
G1 X118.385 Y115.424 E8.06128
G1 X117.630 Y115.828 E8.13906
G1 X117.261 Y115.980 E8.17537
G1 X116.443 Y116.229 E8.25316
G1 X116.051 Y116.307 E8.28946
G1 X115.200 Y116.391 E8.36727
G1 X114.800 Y116.391 E8.40356
G1 X113.949 Y116.307 E8.48135
G1 X113.557 Y116.229 E8.51765
G1 X112.739 Y115.980 E8.59546
G1 X112.370 Y115.828 E8.63175
G1 X111.670 Y115.454 E8.70389
G1 X111.232 Y115.541 E8.74455
G1 X111.048 Y115.765 E8.77095
G1 X110.765 Y116.047 E8.80723
G1 X109.807 Y116.834 E8.92001
G1 X109.475 Y117.056 E8.95628
G1 X108.381 Y117.641 E9.06910
G1 X108.012 Y117.794 E9.10543
G1 X106.825 Y118.154 E9.21815
G1 X106.434 Y118.231 E9.25444
G1 X105.199 Y118.353 E9.36725
G1 X104.801 Y118.353 E9.40349
G1 X103.566 Y118.231 E9.51629
G1 X103.175 Y118.154 E9.55258
G1 X101.988 Y117.794 E9.66530
G1 X101.619 Y117.641 E9.70163
G1 X100.525 Y117.056 E9.81445
G1 X100.193 Y116.834 E9.85072
G1 X99.235 Y116.047 E9.96350
G1 X98.952 Y115.765 E9.99978
G1 X98.166 Y114.807 E10.11256
G1 X97.944 Y114.475 E10.14883
G1 X97.359 Y113.381 E10.26163
G1 X97.207 Y113.012 E10.29792
G1 X96.846 Y111.825 E10.41070
G1 X96.769 Y111.434 E10.44699
G1 X96.647 Y110.199 E10.55979
G1 X96.647 Y109.801 E10.59604
G1 X96.769 Y108.566 E10.70884
G1 X96.846 Y108.175 E10.74512
G1 X97.207 Y106.988 E10.85792
G1 X97.359 Y106.619 E10.89420
G1 X97.847 Y105.707 E10.98825
G1 X97.944 Y105.525 E11.00700
G1 X98.166 Y105.193 E11.04327
G1 X98.953 Y104.234 E11.15607
G1 X99.342 Y103.864 E11.20493
G1 X99.785 Y104.309 F7800.000
G1 X100.566 Y103.668 E11.29680 F1800.000
G1 X100.847 Y103.481 E11.32748
G1 X101.887 Y102.925 E11.43471
G1 X102.198 Y102.796 E11.46540
G1 X103.327 Y102.453 E11.57262
G1 X103.658 Y102.387 E11.60332
G1 X104.831 Y102.272 E11.71054
G1 X105.169 Y102.272 E11.74121 F1800.000
G1 X106.342 Y102.387 E11.84842
G1 X106.673 Y102.453 E11.87913
G1 X107.802 Y102.796 E11.98635
G1 X108.113 Y102.925 E12.01704
G1 X109.153 Y103.481 E12.12425
G1 X109.434 Y103.668 E12.15494
G1 X110.345 Y104.416 E12.26214
G1 X110.584 Y104.655 E12.29284
G1 X111.099 Y105.283 E12.36669
G1 X111.576 Y105.353 E12.41053
G1 X111.937 Y105.112 E12.45001
G1 X112.638 Y104.738 E12.52224
G1 X112.950 Y104.609 E12.55293
G1 X113.710 Y104.378 E12.62515
G1 X114.221 Y104.294 E12.67225
G1 X114.831 Y104.234 E12.72802
G1 X115.169 Y104.234 E12.75873
G1 X115.959 Y104.312 E12.83093
G1 X116.290 Y104.378 E12.86164
G1 X117.050 Y104.609 E12.93387
G1 X117.522 Y104.823 E12.98097
G1 X118.063 Y105.112 E13.03675
G1 X118.344 Y105.300 E13.06744
G1 X118.958 Y105.804 E13.13967
G1 X119.196 Y106.042 E13.17035
G1 X119.700 Y106.657 E13.24262
G1 X119.888 Y106.937 E13.27332
G1 X120.262 Y107.637 E13.34547
G1 X120.391 Y107.949 E13.37620
G1 X120.622 Y108.710 E13.44844
G1 X120.688 Y109.041 E13.47914
G1 X120.766 Y109.831 E13.55136
G1 X120.766 Y110.169 E13.58207
G1 X120.688 Y110.959 E13.65430
G1 X120.622 Y111.290 E13.68498
G1 X120.391 Y112.051 E13.75723
G1 X120.262 Y112.363 E13.78795
G1 X119.888 Y113.063 E13.86011
G1 X119.700 Y113.343 E13.89081
G1 X119.196 Y113.958 E13.96308
G1 X118.958 Y114.196 E13.99376
G1 X118.344 Y114.700 E14.06596
G1 X118.063 Y114.888 E14.09667
G1 X117.363 Y115.262 E14.16887
G1 X117.051 Y115.391 E14.19960
G1 X116.291 Y115.622 E14.27181
G1 X115.959 Y115.688 E14.30253
G1 X115.169 Y115.766 E14.37475
G1 X114.831 Y115.766 E14.40545
G1 X114.041 Y115.688 E14.47766
G1 X113.709 Y115.622 E14.50838
G1 X112.949 Y115.391 E14.58060
G1 X112.637 Y115.262 E14.61131
G1 X111.937 Y114.888 E14.68352
G1 X111.576 Y114.647 E14.72300
G1 X111.099 Y114.717 E14.76684
G1 X110.584 Y115.345 E14.84069
G1 X110.345 Y115.584 E14.87139
G1 X109.434 Y116.332 E14.97859
G1 X109.153 Y116.519 E15.00928
G1 X108.113 Y117.075 E15.11651
G1 X107.801 Y117.205 E15.14725
G1 X106.673 Y117.547 E15.25440
G1 X106.342 Y117.612 E15.28511
G1 X105.169 Y117.728 E15.39233
G1 X104.657 Y117.711 E15.43887
G1 X103.658 Y117.612 E15.53016
G1 X103.327 Y117.547 E15.56086
G1 X102.199 Y117.205 E15.66801
G1 X101.887 Y117.075 E15.69875
G1 X100.847 Y116.519 E15.80598
G1 X100.566 Y116.332 E15.83668
G1 X99.655 Y115.584 E15.94387
G1 X99.416 Y115.345 E15.97457
G1 X98.668 Y114.434 E16.08176
G1 X98.481 Y114.153 E16.11246
G1 X97.925 Y113.113 E16.21967
G1 X97.745 Y112.634 E16.26627
G1 X97.453 Y111.673 E16.35752
G1 X97.387 Y111.342 E16.38823
G1 X97.272 Y110.169 E16.49545
G1 X97.272 Y109.831 E16.52612
G1 X97.387 Y108.658 E16.63333
G1 X97.453 Y108.327 E16.66404
G1 X97.796 Y107.198 E16.77124
G1 X97.925 Y106.887 E16.80194
G1 X98.398 Y106.001 E16.89320
G1 X98.668 Y105.566 E16.93980
G1 X99.416 Y104.655 E17.04701
G1 X99.739 Y104.347 E17.08751
G1 X100.181 Y104.792 F7800.000
G1 X100.939 Y104.171 E17.17659 F1800.000
G1 X101.168 Y104.017 E17.20169
G1 X102.154 Y103.490 E17.30333
G1 X102.409 Y103.385 E17.32844
G1 X103.479 Y103.060 E17.43007
G1 X103.750 Y103.006 E17.45520
G1 X104.862 Y102.897 E17.55683
G1 X105.138 Y102.897 E17.58192
G1 X106.250 Y103.006 E17.68355 F1800.000
G1 X106.521 Y103.060 E17.70867
G1 X107.452 Y103.343 E17.79714
G1 X107.846 Y103.490 E17.83537
G1 X108.832 Y104.017 E17.93700
G1 X109.061 Y104.171 E17.96211
G1 X109.925 Y104.880 E18.06372
G1 X110.120 Y105.075 E18.08884
G1 X110.829 Y105.939 E18.19045
G1 X110.966 Y106.144 E18.21285
G1 X111.514 Y106.225 E18.26322
G1 X112.029 Y105.802 E18.32380
G1 X112.259 Y105.649 E18.34892
G1 X112.905 Y105.303 E18.41556
G1 X113.160 Y105.198 E18.44067
G1 X113.862 Y104.985 E18.50730
G1 X114.132 Y104.931 E18.53241
G1 X114.862 Y104.859 E18.59907
G1 X115.138 Y104.859 E18.62419
G1 X115.867 Y104.931 E18.69081
G1 X116.138 Y104.985 E18.71594
G1 X116.840 Y105.198 E18.78258
G1 X117.227 Y105.374 E18.82133
G1 X117.741 Y105.649 E18.87430
G1 X117.971 Y105.802 E18.89941
G1 X118.537 Y106.267 E18.96606
G1 X118.733 Y106.462 E18.99116
G1 X119.198 Y107.029 E19.05784
G1 X119.351 Y107.259 E19.08296
G1 X119.696 Y107.905 E19.14954
G1 X119.802 Y108.160 E19.17468
G1 X120.015 Y108.862 E19.24133
G1 X120.069 Y109.133 E19.26645
G1 X120.141 Y109.862 E19.33308
G1 X120.141 Y110.138 E19.35821
G1 X120.069 Y110.868 E19.42486
G1 X120.015 Y111.138 E19.44996
G1 X119.802 Y111.840 E19.51662
G1 X119.696 Y112.095 E19.54176
G1 X119.351 Y112.741 E19.60834
G1 X119.198 Y112.971 E19.63346
G1 X118.733 Y113.538 E19.70014
G1 X118.537 Y113.733 E19.72524
G1 X117.971 Y114.198 E19.79186
G1 X117.741 Y114.351 E19.81699
G1 X117.095 Y114.697 E19.88361
G1 X116.840 Y114.802 E19.90875
G1 X116.139 Y115.015 E19.97538
G1 X115.867 Y115.069 E20.00051
G1 X115.138 Y115.141 E20.06715
G1 X114.862 Y115.141 E20.09227
G1 X114.133 Y115.069 E20.15890
G1 X113.862 Y115.015 E20.18404
G1 X113.160 Y114.802 E20.25067
G1 X112.905 Y114.697 E20.27580
G1 X112.259 Y114.351 E20.34242
G1 X112.029 Y114.198 E20.36755
G1 X111.514 Y113.775 E20.42811
G1 X110.966 Y113.856 E20.47849
G1 X110.829 Y114.061 E20.50089
G1 X110.120 Y114.925 E20.60250
G1 X109.925 Y115.120 E20.62761
G1 X109.061 Y115.829 E20.72923
G1 X108.832 Y115.983 E20.75434
G1 X107.846 Y116.510 E20.85598
G1 X107.590 Y116.615 E20.88113
G1 X106.521 Y116.940 E20.98271
G1 X106.250 Y116.994 E21.00783
G1 X105.138 Y117.103 E21.10946
G1 X104.718 Y117.089 E21.14765
G1 X103.750 Y116.994 E21.23614
G1 X103.479 Y116.940 E21.26127
G1 X102.410 Y116.615 E21.36284
G1 X102.154 Y116.510 E21.38799
G1 X101.168 Y115.983 E21.48963
G1 X100.939 Y115.829 E21.51474
G1 X100.075 Y115.120 E21.61636
G1 X99.880 Y114.925 E21.64148
G1 X99.171 Y114.061 E21.74309
G1 X99.017 Y113.832 E21.76820
G1 X98.490 Y112.846 E21.86983
G1 X98.385 Y112.591 E21.89495
G1 X98.060 Y111.521 E21.99656
G1 X98.006 Y111.250 E22.02169
G1 X97.897 Y110.138 E22.12332
G1 X97.897 Y109.862 E22.14841
G1 X98.006 Y108.750 E22.25004
G1 X98.060 Y108.479 E22.27516
G1 X98.385 Y107.409 E22.37678
G1 X98.490 Y107.154 E22.40190
G1 X98.949 Y106.296 E22.49037
G1 X99.171 Y105.939 E22.52860
G1 X99.880 Y105.075 E22.63023
G1 X100.135 Y104.830 E22.66238
G1 X100.578 Y105.275 F7800.000
G1 X101.311 Y104.673 E22.74866 F1800.000
G1 X101.490 Y104.554 E22.76818
G1 X102.422 Y104.056 E22.86423
G1 X102.620 Y103.974 E22.88376
G1 X103.631 Y103.667 E22.97981
G1 X103.842 Y103.625 E22.99935
G1 X104.893 Y103.522 E23.09539
G1 X105.107 Y103.522 E23.11491 F1800.000
G1 X106.158 Y103.625 E23.21095
G1 X106.369 Y103.667 E23.23049
G1 X107.380 Y103.974 E23.32654
G1 X107.578 Y104.056 E23.34607
G1 X108.510 Y104.554 E23.44210
G1 X108.689 Y104.673 E23.46164
G1 X109.417 Y105.271 E23.54731
G1 X109.657 Y105.495 E23.57717
G1 X110.327 Y106.311 E23.67320
G1 X110.446 Y106.490 E23.69273
G1 X110.796 Y107.146 E23.76032
G1 X111.461 Y107.211 E23.82106
G1 X111.731 Y106.883 E23.85969
G1 X111.883 Y106.731 E23.87922
G1 X112.402 Y106.305 E23.94028
G1 X112.580 Y106.185 E23.95982
G1 X113.173 Y105.869 E24.02088
G1 X113.371 Y105.787 E24.04041
G1 X114.014 Y105.592 E24.10146
G1 X114.224 Y105.550 E24.12099
G1 X114.893 Y105.484 E24.18205
G1 X115.107 Y105.484 E24.20159
G1 X115.776 Y105.550 E24.26263
G1 X115.986 Y105.592 E24.28218
G1 X116.629 Y105.787 E24.34323
G1 X116.827 Y105.869 E24.36277
G1 X117.420 Y106.185 E24.42383
G1 X117.598 Y106.305 E24.44336
G1 X118.117 Y106.731 E24.50442
G1 X118.269 Y106.883 E24.52394
G1 X118.695 Y107.402 E24.58503
G1 X118.815 Y107.581 E24.60457
G1 X119.131 Y108.172 E24.66558
G1 X119.213 Y108.371 E24.68513
G1 X119.408 Y109.014 E24.74620
G1 X119.450 Y109.224 E24.76574
G1 X119.516 Y109.893 E24.82679
G1 X119.516 Y110.107 E24.84633
G1 X119.450 Y110.776 E24.90739
G1 X119.408 Y110.986 E24.92692
G1 X119.213 Y111.629 E24.98799
G1 X119.131 Y111.828 E25.00754
G1 X118.815 Y112.419 E25.06855
G1 X118.695 Y112.598 E25.08809
G1 X118.269 Y113.117 E25.14917
G1 X118.117 Y113.269 E25.16870
G1 X117.598 Y113.695 E25.22974
G1 X117.420 Y113.815 E25.24928
G1 X116.828 Y114.131 E25.31032
G1 X116.629 Y114.213 E25.32987
G1 X115.987 Y114.408 E25.39092
G1 X115.776 Y114.450 E25.41047
G1 X115.107 Y114.516 E25.47153
G1 X114.893 Y114.516 E25.49107
G1 X114.224 Y114.450 E25.55211
G1 X114.014 Y114.408 E25.57166
G1 X113.371 Y114.213 E25.63272
G1 X113.172 Y114.131 E25.65226
G1 X112.580 Y113.815 E25.71330
G1 X112.402 Y113.695 E25.73285
G1 X111.883 Y113.269 E25.79390
G1 X111.731 Y113.117 E25.81343
G1 X111.461 Y112.789 E25.85206
G1 X110.796 Y112.854 E25.91280
G1 X110.446 Y113.510 E25.98039
G1 X110.327 Y113.689 E25.99992
G1 X109.657 Y114.505 E26.09595
G1 X109.505 Y114.657 E26.11548
G1 X108.689 Y115.327 E26.21151
G1 X108.510 Y115.446 E26.23105
G1 X107.578 Y115.944 E26.32710
G1 X107.380 Y116.026 E26.34666
G1 X106.369 Y116.333 E26.44266
G1 X106.158 Y116.375 E26.46220
G1 X105.107 Y116.478 E26.55825
G1 X104.893 Y116.478 E26.57776
G1 X103.842 Y116.375 E26.67380
G1 X103.631 Y116.333 E26.69334
G1 X102.620 Y116.026 E26.78935
G1 X102.422 Y115.944 E26.80891
G1 X101.490 Y115.446 E26.90496
G1 X101.311 Y115.327 E26.92449
G1 X100.583 Y114.729 E27.01016
G1 X100.343 Y114.505 E27.04003
G1 X99.673 Y113.689 E27.13605
G1 X99.554 Y113.510 E27.15559
G1 X99.056 Y112.578 E27.25163
G1 X98.974 Y112.380 E27.27117
G1 X98.667 Y111.369 E27.36720
G1 X98.625 Y111.158 E27.38674
G1 X98.522 Y110.107 E27.48278
G1 X98.533 Y109.779 E27.51262
G1 X98.625 Y108.842 E27.59831
G1 X98.667 Y108.631 E27.61785
G1 X98.974 Y107.620 E27.71389
G1 X99.056 Y107.422 E27.73342
G1 X99.500 Y106.591 E27.81910
G1 X99.673 Y106.311 E27.84896
G1 X100.343 Y105.495 E27.94501
G1 X100.532 Y105.313 E27.96880
G1 E22.96880 F2400.00000
G92 E0
G1 X102.541 Y103.935 F7800.000
G1 X103.912 Y103.744 F7800.000
G1 X104.875 Y103.697 F7800.000
G1 X104.922 Y103.696 F7800.000
G1 X104.973 Y104.709 F7800.000
G1 X111.430 Y108.448 F7800.000
G1 E5.00000 F2400.00000
G1 X111.807 Y107.775 E5.07014 F1800.000
G1 X112.303 Y107.194 E5.13952
G1 X112.902 Y106.722 E5.20890
G1 X113.582 Y106.376 E5.27827
G1 X114.316 Y106.169 E5.34763
G1 X115.077 Y106.109 E5.41701
G1 X115.834 Y106.199 E5.48638
G1 X116.560 Y106.434 E5.55575
G1 X117.226 Y106.807 E5.62513
G1 X117.806 Y107.303 E5.69449
G1 X118.278 Y107.902 E5.76389
G1 X118.624 Y108.582 E5.83324
G1 X118.831 Y109.316 E5.90262
